X:2096
T:Idas polska
R:Polska
Z:Anton Teljebäck

M:3/4
L:1/8
K:Dm
|: D>D f2 ue>uf | (d>c) A3 (f | e)>f d2 uc>uA | c2 d4 |
D>D f2 ue>uf | (d>c) A3 (f | g/a/g/f/) d2 vc>uA | c2 d4 :|
|: (f | a)>f (f<a) uf>ua | (a<g) e3(f |  a)>f d>e f>a | (e<^c) A3 (f|
e)>^c d2 uf>ua | (e<^c) A3 (f | g/a/g/f/) d2 vc>uA | c2 d4 :|
(:musicend:)

(:music:)
